icons/24/inbox-filled.svg

<svg width="24" height="24" viewBox="0 0 24 24" xmlns="http://www.w3.org/2000/svg">
  <path fill-rule="evenodd" clip-rule="evenodd" d="M7.368 3C7.04309 3.00001 6.72459 3.09048 6.44818 3.26127C6.17178 3.43206 5.94838 3.67642 5.803 3.967L2.079 11.415C2.02705 11.519 2.00001 11.6337 2 11.75V18.25C2 19.216 2.784 20 3.75 20H20.25C20.7141 20 21.1592 19.8156 21.4874 19.4874C21.8156 19.1592 22 18.7141 22 18.25V11.687C22 11.57 21.9726 11.4546 21.92 11.35L18.197 3.962C18.0511 3.67266 17.8277 3.42952 17.5517 3.25966C17.2758 3.08981 16.9581 2.99992 16.634 3H7.368ZM7.144 4.638C7.16482 4.59645 7.19681 4.56153 7.23638 4.53715C7.27595 4.51277 7.32153 4.49991 7.368 4.5H16.634C16.6802 4.5 16.7255 4.5128 16.7649 4.53699C16.8042 4.56117 16.8361 4.59579 16.857 4.637L20.039 10.952L15.991 11C15.8614 11.0015 15.7345 11.0366 15.6225 11.1018C15.5105 11.167 15.4173 11.2601 15.352 11.372L13.82 14H10.182L8.649 11.372C8.58284 11.2586 8.48808 11.1646 8.37419 11.0993C8.2603 11.034 8.13127 10.9998 8 11H3.964L7.144 4.638Z"/>
</svg>

<svg width="24" height="24" viewBox="0 0 24 24" xmlns="http://www.w3.org/2000/svg">
  <path fill-rule="evenodd" clip-rule="evenodd" d="M7.368 3a1.75 1.75 0 00-1.565.967l-3.724 7.448A.75.75 0 002 11.75v6.5c0 .966.784 1.75 1.75 1.75h16.5A1.75 1.75 0 0022 18.25v-6.563a.75.75 0 00-.08-.337l-3.723-7.388A1.75 1.75 0 0016.634 3H7.368zm-.224 1.638a.25.25 0 01.224-.138h9.266a.25.25 0 01.223.137l3.182 6.315-4.048.048a.75.75 0 00-.639.372L13.82 14h-3.638l-1.533-2.628A.75.75 0 008 11H3.964l3.18-6.362z"/>
</svg>
